!! 00000] TT[WS
!!!OTL: Zhu niangjia
!!!ARE: Asia, China, Shanxi Hequ
!! Ethnic Group: Han
!! WII, 133 (1)
!!!SCT: J0604
!!!YEM: Copyright 1995, estate of Helmut Schaffrath.
**kern
*ICvox
*Ivox
*M2/4
*k[b-]
*F:
{8.cc
16dd
8cc
8b-
=1
2g
=2
8ff
16ee
16dd
8cc
8b-
=3
2g}
=4
{4.cc
8cc
=5
4dd
4dd
=6
4cc
8cc
8b-
=7
4cc
8b-
8g}
=8
{8f
8g
8f
8d
=9
2c
=10
8f
8g
8b-
8b-
=11
8cc
8b-
8g
8f}
=12
{4e
8b-
8g
=13
8f
8g
8f
8e
=14
8c
8c
8f
8g
=15
2c}
==
!!!AGN: Xiaodiao. Qingge, Aisu
!!!ONB: ESAC (Essen Associative Code) Database: CHINA
!!!AMT: simple duple
!!!AIN: vox
!!!EED: Helmut Schaffrath
!!!EEV: 1.0
*-
